X: 1721
T: GIBSON'S QUICK-STEP
O: Arranged by A. F. Knight
B: Oliver Ditson "The Boston Collection of Instrumental Music" 1910 p.172-173
F: http://conquest.imslp.info/files/imglnks/usimg/8/8f/IMSLP175643-PMLP309456-bostoncollection00bost_bw.pdf
%: 2012 John Chambers <jc:trillian.mit.edu>
N: All three parts have a final repeat but no initial repeat.  Fixed.
N: [1] The rest in V:3 bars 13, 14 may be a tremolo on a note/chord that wasn't printed.
M: 2/4
L: 1/16
K: Eb
% -------------------------
V: 1
K: C
|:"Eb CLARINET"\
G2^FG e3d | c3E A3G | G3^c (e3d) | B3d a3g |\
(g2^fg) e'3d' | c'3e a3g | ^f3a e'3d' | g3g g4 :|
|:\
g3^g a3=g | f2^c2 "^>"d4 | !mf!e2fe d2c2 | (BdBA) G4 |\
!ff!A3c _e3^g | a3c' "^>"_e'4 | =e'3d' g3b | c'3c'c'2z2 :|
|:\
c3=B d3c | a3g f4 | d3c _e3d | c3_B G4 |\
g3^f a3g | d'3c' c'4 | g3^f a3g | g3f f4 H:|
% -------------------------
V: 2
K: F
|:"Bb CLARINETs"\
[f2A2][f2A2][f2A2][f2A2] | [f2A2][f2A2][f2A2][f2A2] | !/![e8G8] | !/![g8d8] |\
!/![f8A8] | !/![f8A8] |!/![f8=B8] | [e2c2]z2 [c4E4] :|
|:\
c3^c d3c & c3^c d3c | B3^f g4 & B3^F G4 | z2[f2c2][f2c2][f2c2] | [f2d2][f2d2] [f4d4] |\
!ff![d3A3][dA] [d3A3][dA] | [d3A3][dA] [d3A3][dA] | z2[g2d2][g2d2][g2d2] | [f3c3][fA][f2A2]z2 :|
|:\
f3=e g3f & (3D2F2B2 (3D2F2B2 | d3c B4 & (3D2F2B2 (3D2F2B2 |\
g3f _a3g & (3E2G2c2 (3E2G2c2 | f3e c4 & (3E2G2c2 (3E2G2c2 |\
c3=B d3c & (3A,2E2F2 (3A,2E2F2 | g3f f4 & (3D2F2B2 (3D2F2B2 |\
c3=B f3e & (3A,2E2F2 (3A,2E2A2 | [c3E3][BD] [B4D4] H:|
% -------------------------
V: 3
K: Eb clef=bass middle=D
|:"TROMBONES"\
[B2E2]z2 [B2E2]z2 | [B2E2]z2 [B2E2]z2 | [B2A2]z2 [B2A2]z2 | [A2F2]z2 [A2F2]z2 |\
[e4B4] [e4B4] | [e4B4] [e4B4] | [c4A4] [c4A4] | [d2B2]z2 [B4F4] :|
|:\
!/![d8F8] | !/!d8 & F2F2 A2A2 | z2[B2G2][B2G2][B2G2] | [c2A2][c2A2] [B4G4] |\
!ff![=A3_G3][AG] "^[1]"z4 | [=A3_G3][AG] "^[1]"z4 |  z2[d2F2][d2F2][d2F2] [e2E2] "^>"[B4G4] z2 :|
|:\
[c2A2]z2 [c2A2]z2 | [c2A2]z2 [c2A2]z2 | [d2A2]z2 [d2A2]z2 | [d2A2]z2 [d2A2]z2 |\
[G2E2]z2 [G2E2]z2 | [c2A2]z2 [c2A2]z2 | [G2E2]z2 [G2E2]z2 | [c2A2]z2 [c4A4] H:|
% -------------------------
V: 4 clef=bass middle=d
K: Eb
|:"OPHICLEIDE"\
e2z2 e2z2 | e2z2 e2z2 | d2z2 d2z2 | B2z2 B2z2 |\
E4 e4 | E4 e4 | f4 f4 | b2z2 B4 :|
|:\
!/!B8 | !/!B8 | !/!e8 | e2e2 e4 |\
!ff!e3e e3e | e3e e3e | B4 B4 | e2 "^>"e4 z2 :|
|:\
A2z2 a2z2 | A2z2 a2z2 | a2z2 A2z2 | A2z2 a2z2 |\
e2z2 E2z2 | A2z2 a2z2 | e2z2 E2z2 | A2z2 z4 H:|

% "Tune 1" on this page is the end of the previous pages' tune.

%%sep 1 1 500
%%sep 1 1 500
